; generated by PrusaSlicer 2.4.2+win64 on 2022-06-06 at 17:43:14 UTC


;
;

;
;
; 

; external perimeters extrusion width = 0.45mm
; perimeters extrusion width = 0.45mm
; infill extrusion width = 0.45mm
; solid infill extrusion width = 0.45mm
; top infill extrusion width = 0.40mm
; first layer extrusion width = 0.42mm

M73 P0 R33
M201 X2500 Y2500 Z400 E5000 ; sets maximum accelerations, mm/sec^2
M203 X180 Y180 Z12 E80 ; sets maximum feedrates, mm / sec
M204 P1250 R1250 T2500 ; sets acceleration (P, T) and retract acceleration (R), mm/sec^2
M205 X8.00 Y8.00 Z2.00 E10.00 ; sets the jerk limits, mm/sec
M205 S0 T0 ; sets the minimum extruding and travel feed rate, mm/sec
M107
;TYPE:Custom
M862.3 P "MINI" ; printer model check
G90 ; use absolute coordinates
M83 ; extruder relative mode
M104 S170 ; set extruder temp for bed leveling
M140 S60 ; set bed temp
M109 R170 ; wait for bed leveling temp
M190 S60 ; wait for bed temp
M204 T1250 ; set travel acceleration
G28 ; home all without mesh bed level
G29 ; mesh bed leveling 
M204 T2500 ; restore travel acceleration
M104 S215 ; set extruder temp
G92 E0
G1 Y-2 X179 F2400
G1 Z3 F720
M109 S215 ; wait for extruder temp

; intro line
G1 X170 F1000
G1 Z0.2 F720
G1 X110 E8 F900
G1 X40 E10 F700
G92 E0

M221 S95 ; set flow
G21 ; set units to millimeters
G90 ; use absolute coordinates
M83 ; use relative distances for extrusion
M900 K0.2 ; Filament gcode LA 1.5
; ; Filament gcode LA 1.0
M107
;LAYER_CHANGE
;Z:0.2
;HEIGHT:0.2
;BEFORE_LAYER_CHANGE
G92 E0.0
;0.2


G1 E-3.2 F4200
G1 Z.2 F720
;AFTER_LAYER_CHANGE
;0.2
G1 Z.4
G1 X56.852 Y56.925 F9000
G1 Z.2 F720
G1 E3.2 F2400
M204 P800
;TYPE:Skirt/Brim
;WIDTH:0.42
G1 F1200
G1 X58.326 Y55.511 E.06406
G1 X61.535 Y52.818 E.13133
G1 X64.884 Y50.479 E.12808
G1 X68.424 Y48.44 E.12809
G1 X70.285 Y47.527 E.06501
G1 X73.936 Y46.015 E.12388
G1 X77.93 Y44.756 E.13133
G1 X81.92 Y43.876 E.12809
G1 X83.939 Y43.567 E.06406
G1 X87.525 Y43.245 E.11287
G1 X89.948 Y43.173 E.07602
G1 X91.991 Y43.216 E.06406
G1 X96.163 Y43.581 E.13133
G1 X100.186 Y44.295 E.12809
G1 X104.159 Y45.366 E.12904
G1 X107.872 Y46.718 E.12388
G1 X109.743 Y47.539 E.06406
G1 X113.368 Y49.421 E.12809
G1 X116.901 Y51.672 E.13133
G1 X120.162 Y54.182 E.12904
G1 X123.075 Y56.852 E.12388
G1 X124.489 Y58.326 E.06406
G1 X127.182 Y61.535 E.13133
G1 X129.521 Y64.884 E.12808
M73 P1 R33
G1 X131.56 Y68.424 E.12809
G1 X132.473 Y70.285 E.06501
G1 X133.985 Y73.936 E.12388
G1 X135.244 Y77.93 E.13133
G1 X136.124 Y81.92 E.12809
G1 X136.433 Y83.939 E.06406
G1 X136.755 Y87.525 E.11287
G1 X136.827 Y89.948 E.07602
G1 X136.784 Y91.991 E.06406
G1 X136.419 Y96.163 E.13133
G1 X135.705 Y100.186 E.12809
G1 X134.634 Y104.159 E.12904
G1 X133.282 Y107.872 E.12388
G1 X132.461 Y109.743 E.06406
G1 X130.579 Y113.368 E.12809
G1 X128.328 Y116.901 E.13133
G1 X125.818 Y120.162 E.12904
G1 X123.148 Y123.075 E.12388
G1 X121.674 Y124.489 E.06406
G1 X118.465 Y127.182 E.13133
G1 X115.116 Y129.521 E.12808
G1 X111.576 Y131.56 E.12809
G1 X109.715 Y132.473 E.06501
G1 X106.064 Y133.985 E.12388
G1 X102.07 Y135.244 E.13133
G1 X98.08 Y136.124 E.12809
G1 X96.061 Y136.433 E.06406
G1 X92.475 Y136.755 E.11287
G1 X90.052 Y136.827 E.07602
G1 X88.009 Y136.784 E.06406
G1 X83.837 Y136.419 E.13133
G1 X79.814 Y135.705 E.12809
G1 X75.841 Y134.634 E.12904
G1 X72.128 Y133.282 E.12388
G1 X70.257 Y132.461 E.06406
G1 X66.632 Y130.579 E.12809
G1 X63.099 Y128.328 E.13133
G1 X59.838 Y125.818 E.12904
G1 X56.925 Y123.148 E.12388
G1 X55.511 Y121.674 E.06406
G1 X52.818 Y118.465 E.13133
G1 X50.479 Y115.116 E.12808
G1 X48.44 Y111.576 E.12809
G1 X47.527 Y109.715 E.06501
G1 X46.015 Y106.064 E.12388
G1 X44.756 Y102.07 E.13133
G1 X43.876 Y98.08 E.12809
G1 X43.567 Y96.061 E.06406
G1 X43.245 Y92.475 E.11287
G1 X43.173 Y90.052 E.07602
G1 X43.216 Y88.009 E.06406
G1 X43.581 Y83.837 E.13133
G1 X44.295 Y79.814 E.12809
G1 X45.366 Y75.841 E.12904
G1 X46.718 Y72.128 E.12388
G1 X47.539 Y70.257 E.06406
G1 X49.421 Y66.632 E.12809
G1 X51.672 Y63.099 E.13133
G1 X54.182 Y59.838 E.12904
G1 X56.811 Y56.97 E.122
M204 P1000
; printing object wheel - Part 1.stl id:0 copy 0
G1 E-2.24 F4200
;WIPE_START
G1 F7200
G1 X57.997 Y55.828 E-.912
;WIPE_END
G1 E-.048 F4200
G1 Z.4 F720
G1 X87.371 Y86.609 F9000
G1 Z.2 F720
G1 E3.2 F2400
M204 P800
;TYPE:Perimeter
G1 F1200
G1 X92.629 Y86.609 E.16483
G1 X92.629 Y93.391 E.21262
G1 X87.371 Y93.391 E.16483
G1 X87.371 Y86.669 E.21074
M204 P1000
G1 X87.749 Y86.987 F9000
M204 P800
;TYPE:External perimeter
G1 F1200
G1 X92.252 Y86.987 E.14119
G1 X92.252 Y93.014 E.18897
G1 X87.749 Y93.014 E.14119
G1 X87.749 Y87.047 E.18709
M204 P1000
G1 X87.664 Y86.596 F9000
G1 E-2.24 F4200
;WIPE_START
G1 F7200
G1 X89.394 Y87.025 E-.912
;WIPE_END
G1 E-.048 F4200
G1 Z.4 F720
G1 X94.82 Y92.86 F9000
G1 Z.2 F720
G1 E3.2 F2400
M204 P800
;TYPE:Perimeter
G1 F1200
G1 X95.176 Y92.478 E.01638
G1 X95.556 Y92.136 E.01605
G1 X96.161 Y91.7 E.02337
G1 X96.606 Y91.447 E.01605
G1 X97.065 Y91.236 E.01585
G1 X97.541 Y91.065 E.01585
G1 X98.029 Y90.935 E.01585
G1 X98.534 Y90.848 E.01605
G1 X99.263 Y90.8 E.02291
G1 X125.59 Y90.8 E.82549
G1 X126.078 Y90.821 E.01529
G1 X126.576 Y90.886 E.01575
G1 X127.067 Y90.993 E.01576
G1 X127.547 Y91.141 E.01575
G1 X128.013 Y91.33 E.01575
G1 X128.466 Y91.561 E.01595
G1 X129.086 Y91.966 E.02323
G1 X129.48 Y92.288 E.01595
G1 X129.841 Y92.638 E.01575
G1 X130.17 Y93.018 E.01576
G1 X130.469 Y93.429 E.01595
G1 X130.834 Y94.063 E.02293
G1 X131.043 Y94.537 E.01624
G1 X131.205 Y95.013 E.01577
G1 X131.326 Y95.501 E.01575
G1 X131.405 Y95.997 E.01575
G1 X131.441 Y96.498 E.01575
G1 X131.434 Y97.007 E.01595
G1 X131.345 Y97.736 E.02303
G1 X130.972 Y99.513 E.05692
G1 X130.527 Y101.26 E.05653
G1 X130.007 Y102.986 E.05653
G1 X129.414 Y104.689 E.05653
G1 X128.748 Y106.364 E.05653
G1 X128.012 Y108.01 E.05653
G1 X127.205 Y109.622 E.05653
G1 X126.33 Y111.199 E.05653
G1 X125.388 Y112.736 E.05653
G1 X124.381 Y114.231 E.05653
G1 X123.311 Y115.683 E.05653
G1 X122.18 Y117.086 E.05653
G1 X121.019 Y118.407 E.05514
G1 X119.743 Y119.742 E.05791
G1 X118.441 Y120.99 E.05654
G1 X117.086 Y122.18 E.05653
G1 X115.683 Y123.311 E.05653
G1 X114.231 Y124.381 E.05653
G1 X112.736 Y125.388 E.05653
G1 X111.199 Y126.33 E.05653
G1 X109.622 Y127.205 E.05653
G1 X108.01 Y128.012 E.05653
G1 X106.364 Y128.748 E.05653
G1 X104.689 Y129.414 E.05653
G1 X102.986 Y130.007 E.05653
G1 X101.26 Y130.527 E.05653
G1 X99.513 Y130.972 E.05653
G1 X97.736 Y131.345 E.05692
G1 X97 Y131.434 E.02323
G1 X96.253 Y131.429 E.02343
G1 X95.748 Y131.371 E.01595
G1 X95.255 Y131.271 E.01576
G1 X94.773 Y131.129 E.01575
G1 X94.305 Y130.947 E.01575
G1 X93.854 Y130.725 E.01576
G1 X93.424 Y130.465 E.01575
G1 X93.018 Y130.17 E.01575
G1 X92.633 Y129.837 E.01595
G1 X92.128 Y129.294 E.02323
G1 X91.823 Y128.887 E.01595
G1 X91.558 Y128.46 E.01576
G1 X91.33 Y128.013 E.01575
G1 X91.141 Y127.547 E.01575
G1 X90.993 Y127.067 E.01576
G1 X90.886 Y126.576 E.01576
G1 X90.821 Y126.078 E.01575
G1 X90.8 Y125.59 E.01529
G1 X90.8 Y99.269 E.82529
G1 X90.822 Y98.772 E.01558
M73 P2 R33
G1 X90.935 Y98.029 E.02357
G1 X91.144 Y97.301 E.02377
G1 X91.446 Y96.605 E.02377
G1 X91.835 Y95.955 E.02376
G1 X92.294 Y95.372 E.02327
G1 X92.659 Y94.999 E.01634
G1 X93.035 Y94.676 E.01554
G1 X93.602 Y94.238 E.02247
G1 X93.933 Y93.933 E.01412
G1 X94.24 Y93.601 E.01418
G1 X94.783 Y92.908 E.0276
M204 P1000
G1 X95.117 Y93.093 F9000
M204 P800
;TYPE:External perimeter
G1 F1200
G1 X95.44 Y92.748 E.01484
G1 X95.793 Y92.43 E.0149
G1 X96.365 Y92.017 E.0221
G1 X96.778 Y91.783 E.0149
G1 X97.208 Y91.585 E.01483
G1 X97.653 Y91.425 E.01483
G1 X98.11 Y91.304 E.01483
G1 X98.578 Y91.223 E.0149
G1 X99.275 Y91.178 E.02189
G1 X125.582 Y91.178 E.82485
G1 X126.045 Y91.197 E.01453
M73 P2 R32
G1 X126.512 Y91.258 E.01474
G1 X126.971 Y91.358 E.01474
G1 X127.42 Y91.496 E.01474
G1 X127.856 Y91.673 E.01474
G1 X128.277 Y91.888 E.01481
G1 X128.863 Y92.27 E.02196
G1 X129.229 Y92.569 E.01481
G1 X129.566 Y92.897 E.01474
G1 X129.874 Y93.252 E.01474
G1 X130.152 Y93.634 E.01481
G1 X130.497 Y94.234 E.02167
G1 X130.691 Y94.674 E.0151
G1 X130.843 Y95.119 E.01475
G1 X130.956 Y95.576 E.01474
G1 X131.03 Y96.04 E.01474
G1 X131.064 Y96.509 E.01474
G1 X131.057 Y96.981 E.01481
G1 X130.973 Y97.674 E.02189
G1 X130.605 Y99.428 E.05616
G1 X130.164 Y101.159 E.05602
G1 X129.649 Y102.87 E.05602
G1 X129.061 Y104.557 E.05602
G1 X128.401 Y106.218 E.05602
G1 X127.671 Y107.848 E.05602
G1 X126.871 Y109.446 E.05602
G1 X126.004 Y111.008 E.05602
G1 X125.071 Y112.532 E.05602
G1 X124.073 Y114.014 E.05602
G1 X123.013 Y115.452 E.05602
G1 X121.892 Y116.844 E.05602
G1 X120.741 Y118.152 E.05464
G1 X119.476 Y119.476 E.0574
G1 X118.186 Y120.712 E.05603
G1 X116.844 Y121.892 E.05602
G1 X115.452 Y123.013 E.05602
G1 X114.014 Y124.073 E.05602
G1 X112.532 Y125.071 E.05602
G1 X111.008 Y126.004 E.05602
G1 X109.446 Y126.871 E.05602
G1 X107.848 Y127.671 E.05602
G1 X106.218 Y128.401 E.05602
G1 X104.557 Y129.061 E.05602
G1 X102.87 Y129.649 E.05602
G1 X101.159 Y130.164 E.05602
G1 X99.428 Y130.605 E.05602
G1 X97.674 Y130.973 E.05616
G1 X96.979 Y131.057 E.02196
G1 X96.276 Y131.052 E.02203
G1 X95.807 Y130.998 E.01481
G1 X95.346 Y130.904 E.01474
G1 X94.895 Y130.772 E.01474
G1 X94.457 Y130.601 E.01474
G1 X94.035 Y130.394 E.01474
G1 X93.633 Y130.151 E.01474
G1 X93.252 Y129.874 E.01474
G1 X92.895 Y129.565 E.01481
G1 X92.418 Y129.052 E.02196
G1 X92.135 Y128.674 E.01481
G1 X91.887 Y128.275 E.01474
G1 X91.673 Y127.856 E.01474
G1 X91.496 Y127.42 E.01474
G1 X91.358 Y126.971 E.01474
G1 X91.258 Y126.512 E.01474
G1 X91.197 Y126.045 E.01474
G1 X91.178 Y125.582 E.01453
G1 X91.178 Y99.277 E.82478
G1 X91.198 Y98.809 E.01469
G1 X91.304 Y98.11 E.02217
G1 X91.5 Y97.428 E.02224
G1 X91.782 Y96.778 E.02224
G1 X92.146 Y96.169 E.02224
G1 X92.578 Y95.621 E.02187
G1 X92.917 Y95.275 E.01519
G1 X93.273 Y94.969 E.01472
G1 X93.846 Y94.527 E.02268
G1 X94.2 Y94.2 E.01512
G1 X94.527 Y93.845 E.01514
G1 X95.08 Y93.14 E.02807
M204 P1000
G1 X94.993 Y92.713 F9000
G1 E-2.24 F4200
;WIPE_START
G1 F7200
G1 X95.44 Y92.748 E-.29534
G1 X95.793 Y92.43 E-.26338
G1 X96.31 Y92.057 E-.35328
;WIPE_END
G1 E-.048 F4200
G1 Z.4 F720
G1 X97.278 Y88.846 F9000
G1 Z.2 F720
G1 E3.2 F2400
M204 P800
;TYPE:Perimeter
G1 F1200
G1 X96.611 Y88.556 E.0228
G1 X96.166 Y88.303 E.01605
G1 X95.75 Y88.017 E.01585
G1 X95.36 Y87.695 E.01585
G1 X94.999 Y87.341 E.01585
G1 X94.676 Y86.965 E.01553
G1 X94.238 Y86.398 E.02247
G1 X93.933 Y86.067 E.01412
G1 X93.602 Y85.762 E.01412
G1 X93.035 Y85.324 E.02247
G1 X92.654 Y84.997 E.01573
G1 X92.144 Y84.454 E.02337
G1 X91.836 Y84.045 E.01605
G1 X91.567 Y83.617 E.01585
G1 X91.336 Y83.167 E.01585
G1 X91.145 Y82.699 E.01585
G1 X90.995 Y82.216 E.01585
G1 X90.885 Y81.716 E.01605
G1 X90.805 Y80.975 E.02337
G1 X90.8 Y54.403 E.83314
G1 X90.847 Y53.679 E.02277
G1 X90.934 Y53.177 E.01595
G1 X91.062 Y52.691 E.01575
G1 X91.232 Y52.212 E.01595
G1 X91.55 Y51.554 E.02293
G1 X91.823 Y51.113 E.01624
G1 X92.125 Y50.711 E.01577
G1 X92.459 Y50.336 E.01575
G1 X92.824 Y49.991 E.01575
G1 X93.218 Y49.678 E.01576
G1 X93.636 Y49.4 E.01576
G1 X94.077 Y49.159 E.01575
G1 X94.537 Y48.957 E.01575
G1 X95.013 Y48.795 E.01576
G1 X95.501 Y48.674 E.01575
G1 X96.003 Y48.594 E.01595
G1 X96.733 Y48.557 E.02293
G1 X97.251 Y48.586 E.01624
G1 X97.742 Y48.656 E.01557
G1 X99.513 Y49.028 E.05673
G1 X101.26 Y49.473 E.05653
G1 X102.986 Y49.993 E.05653
G1 X104.689 Y50.586 E.05653
G1 X106.364 Y51.252 E.05653
G1 X108.01 Y51.988 E.05653
G1 X109.622 Y52.795 E.05653
G1 X111.199 Y53.67 E.05653
G1 X112.736 Y54.612 E.05653
G1 X114.231 Y55.619 E.05653
G1 X115.683 Y56.689 E.05653
G1 X117.086 Y57.82 E.05653
G1 X118.441 Y59.01 E.05653
G1 X119.743 Y60.257 E.05653
G1 X120.99 Y61.559 E.05653
G1 X122.18 Y62.914 E.05653
G1 X123.311 Y64.317 E.05653
G1 X124.381 Y65.769 E.05653
G1 X125.388 Y67.264 E.05653
G1 X126.33 Y68.801 E.05653
G1 X127.205 Y70.378 E.05653
G1 X128.012 Y71.99 E.05653
G1 X128.748 Y73.636 E.05653
G1 X129.414 Y75.311 E.05653
G1 X130.007 Y77.014 E.05653
G1 X130.527 Y78.74 E.05653
G1 X130.972 Y80.487 E.05653
G1 X131.345 Y82.264 E.05692
G1 X131.434 Y82.993 E.02303
G1 X131.441 Y83.502 E.01595
G1 X131.405 Y84.003 E.01575
G1 X131.326 Y84.499 E.01575
G1 X131.205 Y84.987 E.01576
G1 X131.041 Y85.469 E.01595
G1 X130.725 Y86.146 E.02343
G1 X130.326 Y86.777 E.02343
G1 X130.009 Y87.176 E.01595
G1 X129.664 Y87.541 E.01576
G1 X129.289 Y87.875 E.01575
G1 X128.887 Y88.177 E.01575
G1 X128.46 Y88.442 E.01576
G1 X128.013 Y88.67 E.01575
G1 X127.547 Y88.859 E.01575
G1 X127.067 Y89.007 E.01575
G1 X126.579 Y89.114 E.01565
G1 X125.834 Y89.195 E.02352
G1 X99.269 Y89.2 E.83291
G1 X98.772 Y89.178 E.01559
G1 X98.029 Y89.065 E.02357
G1 X97.335 Y88.865 E.02265
M204 P1000
G1 X97.428 Y88.5 F9000
M204 P800
;TYPE:External perimeter
G1 F1200
G1 X96.78 Y88.219 E.02217
G1 X96.367 Y87.984 E.0149
G1 X95.977 Y87.715 E.01483
G1 X95.612 Y87.414 E.01483
G1 X95.275 Y87.083 E.01483
G1 X94.969 Y86.727 E.01472
G1 X94.527 Y86.154 E.02268
G1 X94.2 Y85.8 E.01511
G1 X93.846 Y85.473 E.01511
G1 X93.273 Y85.031 E.02268
G1 X92.915 Y84.724 E.01479
G1 X92.433 Y84.21 E.0221
G1 X92.146 Y83.831 E.0149
G1 X91.895 Y83.43 E.01483
G1 X91.679 Y83.009 E.01483
G1 X91.5 Y82.571 E.01483
G1 X91.36 Y82.12 E.01483
G1 X91.258 Y81.656 E.0149
G1 X91.182 Y80.955 E.0221
G1 X91.177 Y54.416 E.83213
G1 X91.222 Y53.723 E.02176
G1 X91.303 Y53.258 E.01481
G1 X91.422 Y52.803 E.01474
G1 X91.581 Y52.358 E.01481
G1 X91.881 Y51.735 E.02167
G1 X92.135 Y51.326 E.0151
G1 X92.417 Y50.95 E.01475
G1 X92.73 Y50.599 E.01474
G1 X93.071 Y50.276 E.01474
G1 X93.44 Y49.983 E.01474
G1 X93.831 Y49.723 E.01474
G1 X94.244 Y49.498 E.01474
G1 X94.674 Y49.309 E.01474
G1 X95.119 Y49.157 E.01474
G1 X95.576 Y49.044 E.01474
G1 X96.042 Y48.97 E.01481
G1 X96.732 Y48.935 E.02167
G1 X97.213 Y48.961 E.0151
G1 X97.677 Y49.028 E.01468
G1 X99.428 Y49.395 E.05609
G1 X101.159 Y49.836 E.05602
G1 X102.87 Y50.351 E.05602
G1 X104.557 Y50.939 E.05602
G1 X106.218 Y51.599 E.05602
G1 X107.848 Y52.329 E.05602
G1 X109.446 Y53.129 E.05602
G1 X111.008 Y53.996 E.05602
G1 X112.532 Y54.929 E.05602
G1 X114.014 Y55.927 E.05602
G1 X115.452 Y56.987 E.05602
G1 X116.844 Y58.108 E.05602
G1 X118.186 Y59.288 E.05602
G1 X119.476 Y60.524 E.05602
G1 X120.712 Y61.814 E.05602
G1 X121.892 Y63.156 E.05602
G1 X123.013 Y64.548 E.05602
G1 X124.073 Y65.986 E.05602
G1 X125.071 Y67.468 E.05602
G1 X126.004 Y68.992 E.05602
G1 X126.871 Y70.554 E.05602
G1 X127.671 Y72.152 E.05602
G1 X128.401 Y73.782 E.05602
G1 X129.061 Y75.443 E.05602
G1 X129.649 Y77.13 E.05602
G1 X130.164 Y78.841 E.05602
G1 X130.605 Y80.572 E.05602
G1 X130.973 Y82.326 E.05616
G1 X131.057 Y83.019 E.02189
G1 X131.064 Y83.491 E.01481
G1 X131.03 Y83.96 E.01474
G1 X130.956 Y84.424 E.01474
G1 X130.843 Y84.881 E.01474
G1 X130.691 Y85.328 E.01481
G1 X130.394 Y85.965 E.02203
G1 X130.018 Y86.559 E.02203
G1 X129.724 Y86.929 E.01481
G1 X129.401 Y87.27 E.01474
G1 X129.05 Y87.583 E.01474
G1 X128.674 Y87.865 E.01474
G1 X128.275 Y88.113 E.01474
G1 X127.856 Y88.327 E.01474
G1 X127.42 Y88.504 E.01474
G1 X126.971 Y88.642 E.01474
G1 X126.519 Y88.741 E.01452
G1 X125.813 Y88.818 E.02225
G1 X99.277 Y88.823 E.83201
G1 X98.809 Y88.802 E.01469
M73 P3 R32
G1 X98.11 Y88.696 E.02217
G1 X97.486 Y88.517 E.02036
M204 P1000
G1 X97.123 Y88.758 F9000
G1 E-2.24 F4200
;WIPE_START
G1 F7200
G1 X96.78 Y88.219 E-.42478
G1 X96.367 Y87.984 E-.26337
G1 X96.034 Y87.754 E-.22385
;WIPE_END
G1 E-.048 F4200
G1 Z.4 F720
G1 X88.426 Y83.629 F9000
G1 Z.2 F720
G1 E3.2 F2400
M204 P800
;TYPE:Perimeter
G1 F1200
G1 X88.164 Y84.045 E.01542
G1 X87.856 Y84.454 E.01605
G1 X87.346 Y84.997 E.02337
G1 X86.965 Y85.324 E.01573
G1 X86.398 Y85.762 E.02247
G1 X86.067 Y86.067 E.01412
G1 X85.762 Y86.398 E.01412
G1 X85.324 Y86.965 E.02247
G1 X85.001 Y87.341 E.01553
G1 X84.64 Y87.695 E.01585
G1 X84.245 Y88.021 E.01605
G1 X83.617 Y88.434 E.02357
G1 X82.935 Y88.765 E.02377
G1 X82.223 Y89.004 E.02357
G1 X81.723 Y89.113 E.01605
G1 X81.221 Y89.178 E.01585
G1 X80.731 Y89.2 E.01539
G1 X54.173 Y89.195 E.8327
G1 X53.673 Y89.152 E.01575
G1 X53.177 Y89.066 E.01575
G1 X52.691 Y88.938 E.01575
G1 X52.212 Y88.767 E.01595
G1 X51.545 Y88.445 E.02323
G1 X51.113 Y88.177 E.01595
G1 X50.706 Y87.872 E.01595
G1 X50.163 Y87.367 E.02323
